assets/img/braze_icons/search-refraction.svg

<svg fill="none" height="24" viewBox="0 0 24 24" width="24" xmlns="http://www.w3.org/2000/svg"><g fill="#801ed7"><path d="m10 6c0-.55228.4477-1 1-1 3.3137 0 6 2.68629 6 6 0 .5523-.4477 1-1 1s-1-.4477-1-1c0-2.20914-1.7909-4-4-4-.5523 0-1-.44772-1-1z"/><path clip-rule="evenodd" d="m2 11c0-4.97056 4.02944-9 9-9 4.9706 0 9 4.02944 9 9 0 2.125-.7365 4.078-1.9681 5.6177l3.6752 3.6752c.3905.3905.3905 1.0237 0 1.4142s-1.0237.3905-1.4142 0l-3.6752-3.6752c-1.5397 1.2316-3.4927 1.9681-5.6177 1.9681-4.97056 0-9-4.0294-9-9zm9-7c-3.86599 0-7 3.13401-7 7 0 3.866 3.13401 7 7 7 3.866 0 7-3.134 7-7 0-3.86599-3.134-7-7-7z" fill-rule="evenodd"/></g></svg>

<svg width="24" height="24" viewBox="0 0 24 24" fill="none" xmlns="http://www.w3.org/2000/svg">
<path d="M10 6C10 5.44772 10.4477 5 11 5C14.3137 5 17 7.68629 17 11C17 11.5523 16.5523 12 16 12C15.4477 12 15 11.5523 15 11C15 8.79086 13.2091 7 11 7C10.4477 7 10 6.55228 10 6Z" fill="#801ED7"/>
<path fill-rule="evenodd" clip-rule="evenodd" d="M2 11C2 6.02944 6.02944 2 11 2C15.9706 2 20 6.02944 20 11C20 13.125 19.2635 15.078 18.0319 16.6177L21.7071 20.2929C22.0976 20.6834 22.0976 21.3166 21.7071 21.7071C21.3166 22.0976 20.6834 22.0976 20.2929 21.7071L16.6177 18.0319C15.078 19.2635 13.125 20 11 20C6.02944 20 2 15.9706 2 11ZM11 4C7.13401 4 4 7.13401 4 11C4 14.866 7.13401 18 11 18C14.866 18 18 14.866 18 11C18 7.13401 14.866 4 11 4Z" fill="#801ED7"/>
</svg>
